<?xml version="1.0" encoding="UTF-8"?>
<map version="1.10" tiledversion="1.12.1" orientation="orthogonal" renderorder="right-down" width="15" height="5" tilewidth="16" tileheight="16" infinite="0" backgroundcolor="#3a3a3a" nextlayerid="2" nextobjectid="1">
 <tileset firstgid="1" source="tileset.tsx"/>
 <layer id="1" name="Tile Layer 1" width="15" height="5">
  <data encoding="csv">
25,4,4,4,21,8,25,4,5,3,21,8,9,3,4,
22,33,33,33,23,20,39,11,12,22,23,20,24,22,33,
22,33,33,33,33,33,12,22,34,32,33,33,34,32,33,
22,33,33,33,27,40,19,26,12,22,27,40,28,22,33,
45,30,30,30,41,44,45,30,46,18,41,44,36,18,30
</data>
 </layer>
</map>
